X:1
T:E. O. Excell
T:Jessie Brown Pounds
T:The Gifts of God
%%score { ( 1 2 ) | ( 3 4 5 ) }
L:1/8
M:4/4
K:Ab
V:1 treble 
V:2 treble 
V:3 bass 
V:4 bass 
V:5 bass 
V:1
{/x} E2 | E3 A c>B A>F | E6 A2 | B3 A c2 B2 | B6 E2 | E3 A c>B A>c | e2 d2 c2 B2 | A3 c c2 B2 | %8
w: His|gifts are great- er than my|dreams, The|gifts of God to|me; As|count- less as the sun- set's|gold- en beams, As|bound- less as the|
w: I|ask a part, He gives the|whole\- Him-|self, and all be-|side; His|lov- ing- kind- ness o- ver-|flows my soul, In-|rush- ing as the|
w: "His|ways are ways of pleas- ant-|ness, His|paths are paths of|peace;" His|hand is ev- er reach- ing|out to bless; He|bids each sor- row|
w: With-|in my heart He shall have|place To|rule and reign su-|preme; My|voice will ev- er praise Him|for the grace Of|which I ne;er could|
 A6 |"^Chorus." E2 | c3 G B<A E>C | E6 E2 | d3 c B2 E2 | A2 B2 c2 E2 | e3 d c>B A>c | e2 d2 c2 B2 | %16
w: sea.|His|gifts are great- er than my|dreams, The|gifts of Him who|set me free; And|more and more a- bun- dant|dai- ly seems The|
w: tide.||||||||
w: cease.||||||||
w: dream.||||||||
 A3 c c2 B2 | A6 |] %18
w: greace of God to|me.|
w: ||
w: ||
w: ||
V:2
 C2 | C3 C E>D C>D | C6 E2 | E3 E E2 E2 | E6 D2 | C3 C E>D C>E | G2 F2 F2 F2 | E3 E E2 D2 | C6 | %9
w: |||||||||
w: |||||||||
 C2 | E3 B, D<C C>C | D<D D>D D2 D2 | E3 E E2 E2 | E2 E2 E2 C2 | E3 E E>E E>E | G2 F2 F2 F2 | %16
w: |||||||
w: His|gifts are great- er, they are|great- er than my dreams. *|||||
 E3 E E2 D2 | C6 |] %18
w: ||
w: ||
V:3
 x2 | x8 | x8 | x8 | x8 | x8 | x8 | x8 | z6 | [A,,A,]2 | x8 | x8 | x8 | x8 | x8 | x8 | x8 | x6 |] %18
V:4
 A,2 | A,3 [A,,E,] [A,,E,]>[A,,E,] [A,,A,]>[A,,A,] | A,6 A,2 | D3 C A,2 G,2 | G,6 G,2 | %5
 A,3 G, G,>G, A,>A, | A,2 A,2 E2 D2 | C3 A, A,2 G,2 | A,6 | x2 | E,3 E, E,<E, A,>A, | %11
 G,<G, G,>G, B,2 G,2 | B,3 A, G,2 G,2 | A,2 G,2 A,2 A,2 | C3 B, A,>B, C>A, | A,2 A,2 E2 C2 | %16
 C3 A, A,2 G,2 | A,6 |] %18
V:5
 A,,2 | A,,3 x x4 | A,,6 C,2 | E,3 E, E,2 E,2 | E,6 E,2 | A,,3 A,, A,,>A,, A,,>A,, | %6
 D,2 D,2 D,2 D,2 | E,3 E, E,2 E,2 | A,,6 | x2 | A,,3 A,, A,,<A,, A,,>A,, | B,,<B,, E,>D, G,2 E,2 | %12
 E,3 E, E,2 D,2 | C,2 B,,2 A,,2 A,,2 | A,,3 A,, A,,>A,, A,,>A,, | D,2 D,2 D,2 D,2 | %16
 E,3 E, E,2 E,2 | A,,6 |] %18

